X:1
T:Hainault, 77.75 D
T:Hainault, 77.75 D
T:William James Kirkpatrick, 1887
T:Public Domain Courtesy of the Cyber Hymnal™
C:William James Kirkpatrick, 1887
Z:Public Domain
Z:Courtesy of the Cyber Hymnal™
%%score ( 1 2 ) ( 3 4 )
L:1/8
Q:1/4=100
M:3/4
K:A
V:1 treble 
V:2 treble 
V:3 bass 
V:4 bass 
V:1
 [CE]C [CE]2 [EA]2 | [EA][EG] [EG]4 | [EG][^DF] [DF]2 [EG]2 | [^DF]E E4 | [CE]C [CE]2 [Ec]2 | %5
 [Fc][FB] [DF]4 | [DG]3 [DG] [DF][DG] | [CA]6 | [Ec][Ec] [Ec]2 [Ae]2 | [Ge][GB] [GB]4 | %10
 [FA][FA] [FA]2 [Fc]2 | [^Ec][EG] [EG]4 | [DF][DF] [FA]2 [DF]2 | [CE][CA] [Ec]4 | %14
 [DB]3 [DB] [DF][DG] | [CA]6 |] %16
V:2
 x C x4 | x6 | x6 | x E E4 | x C x4 | x6 | x6 | x6 | x6 | x6 | x6 | x6 | x6 | x6 | x6 | x6 |] %16
V:3
 [A,,A,][A,,E,] [A,,A,]2 [A,,C]2 | [E,C][E,B,] [E,B,]4 | [B,,B,][B,,A,] [B,,A,]2 [B,,B,]2 | %3
 [B,,A,][E,G,] [E,G,]4 | [A,,A,][A,,E,] [A,,A,]2 [A,,A,]2 | [D,F,][D,F,] [D,B,]4 | %6
 [E,B,]3 [E,B,] [E,B,][E,B,] | [A,,A,]6 | A,A, A,2 [A,C]2 | [E,B,][E,E] [E,E]4 | %10
 [F,C][F,C] [F,C]2 [F,A,]2 | [C,G,][C,C] (C2 B,2) | [D,A,][D,A,] [D,A,]2 [D,A,]2 | %13
 [A,,A,][A,,A,] [A,,A,]4 | [E,G,]3 [E,G,] [E,A,][E,B,] | [A,,A,]6 |] %16
V:4
 x6 | x6 | x6 | x6 | x6 | x6 | x6 | x6 | A,A, A,2 x2 | x6 | x6 | x2 C,4 | x6 | x6 | x6 | x6 |] %16

